icons/icn_flexChevron.svg

<svg width="24" xmlns="http://www.w3.org/2000/svg" height="24" id="screenshot-6e9ef5d9-ce0f-8092-8006-795ededf472f" viewBox="0 0 24 24" xmlns:xlink="http://www.w3.org/1999/xlink" fill="none" version="1.1"><g id="shape-6e9ef5d9-ce0f-8092-8006-795ededf472f"><g class="frame-container-wrapper"><g class="frame-container-blur"><g class="frame-container-shadows"><g fill="none"><g class="fills" id="fills-6e9ef5d9-ce0f-8092-8006-795ededf472f"><rect rx="0" ry="0" x="0" y="0" width="24" height="24.000000000000455" transform="matrix(1, 0, 0, 1, 0, 0)" class="frame-background"/></g><g class="frame-children"><g id="shape-6e9ef5d9-ce0f-8092-8006-795ec70cc25e" width="24" height="24" version="1.1" rx="0" ry="0" style="fill: rgb(0, 0, 0);"><g id="shape-6e9ef5d9-ce0f-8092-8006-795ec710c2f9" style="opacity: 1;"><g class="fills" id="fills-6e9ef5d9-ce0f-8092-8006-795ec710c2f9"><path d="M5.990944862365723,11.982070922851562C5.990944862365723,11.982070922851562,6.831521034240723,10.826553344726562,8.647194862365723,8.403579711914062C8.931130409240723,8.021743774414062,8.851784706115723,7.4821929931640625,8.469704627990723,7.1977691650390625C8.286355018615723,7.0616607666015625,8.057106971740723,7.0037994384765625,7.830544471740723,7.0359039306640625C7.603981971740723,7.0694732666015625,7.400612831115723,7.1903228759765625,7.263405799865723,7.3728179931640625L4.198220252990723,11.462173461914062C4.117165565490723,11.575332641601562,4.065896034240723,11.706192016601562,4.046364784240723,11.843643188476562C3.9809350967407227,12.102920532226562,4.039040565490723,12.377212524414062,4.205544471740723,12.586807250976562L7.446755409240723,16.645401000976562C7.744118690490723,17.020034790039062,8.289040565490723,17.082534790039062,8.663064002990723,16.785537719726562C9.036843299865723,16.489151000976562,9.099343299865723,15.946792602539062,8.803933143615723,15.573135375976562C7.849099159240723,14.388320922851562,6.890358924865723,13.208511352539062,5.990944862365723,11.982070922851562L5.990944862365723,11.982070922851562" style="display: inline; stroke-linecap: round; stroke-linejoin: round; fill: rgb(0, 0, 0); fill-opacity: 1;"/></g></g><g id="shape-6e9ef5d9-ce0f-8092-8006-79611fbe488d"><g class="fills" id="fills-6e9ef5d9-ce0f-8092-8006-79611fbe488d"><ellipse cx="12.019999999999982" cy="12.027167116774763" rx="1" ry="1" transform="matrix(1, 0, 0, 1, 0, 0)" style="fill: rgb(0, 0, 0); fill-opacity: 1;"/></g></g><g id="shape-6e9ef5d9-ce0f-8092-8006-795ec71129a5" style="opacity: 1;"><g class="fills" id="fills-6e9ef5d9-ce0f-8092-8006-795ec71129a5"><path d="M17.99973487854004,12.018325805664062C17.99973487854004,12.018325805664062,17.16013526916504,13.173721313476562,15.343239784240723,15.596206665039062C15.059792518615723,15.978530883789062,15.138894081115723,16.518081665039062,15.520974159240723,16.802627563476562C15.704323768615723,16.938735961914062,15.934304237365723,16.996597290039062,16.15989112854004,16.964004516601562C16.38645362854004,16.930435180664062,16.59006690979004,16.809951782226562,16.72727394104004,16.627456665039062L19.79319190979004,12.538101196289062C19.87327003479004,12.425064086914062,19.92600440979004,12.294082641601562,19.94529151916504,12.156631469726562C20.00974464416504,11.897354125976562,19.95261573791504,11.623062133789062,19.78489112854004,11.413467407226562L16.54416847229004,7.3548736572265625C16.24753761291504,6.9807281494140625,15.702370643615723,6.9177398681640625,15.327614784240723,7.2146148681640625C14.953591346740723,7.5111236572265625,14.891091346740723,8.053482055664062,15.187478065490723,8.427017211914062C16.14158058166504,9.611831665039062,17.10105323791504,10.791641235351562,17.99973487854004,12.018325805664062Z" style="display: inline; stroke-linecap: round; stroke-linejoin: round; fill: rgb(0, 0, 0); fill-opacity: 1;"/></g></g></g></g></g></g></g></g></g></svg>

<svg fill="none" viewBox="0 0 24 24"><g class="frame-container-wrapper"><g class="frame-container-blur"><g class="frame-container-shadows"><g class="fills"><rect width="24" height="24" class="frame-background" rx="0" ry="0"/></g><g fill="#000" class="frame-children"><path d="M5.991 11.982s.8405-1.1554 2.6562-3.5784c.284-.3819.2046-.9214-.1775-1.2058a.867.867 0 0 0-.6392-.1619.8678.8678 0 0 0-.567.337l-3.0653 4.0893a.862.862 0 0 0-.1518.3814.8562.8562 0 0 0 .1591.7432l3.2413 4.0586c.2973.3746.8422.4371 1.2163.1401a.8635.8635 0 0 0 .1408-1.2124c-.9548-1.1848-1.9135-2.3646-2.813-3.591" class="fills"/><circle cx="12.02" cy="12.0272" r="1" class="fills"/><path d="M17.9997 12.0183s-.8396 1.1554-2.6565 3.578a.863.863 0 0 0 .1778 1.2063.865.865 0 0 0 .6389.1614.8678.8678 0 0 0 .5674-.3365l3.0659-4.0894a.8704.8704 0 0 0 .152-.3815c.0645-.2592.0074-.5335-.1603-.7431l-3.2407-4.0586c-.2967-.3742-.8418-.4372-1.2166-.1403a.8623.8623 0 0 0-.1401 1.2124c.954 1.1848 1.9136 2.3646 2.8122 3.5913Z" class="fills"/></g></g></g></g></svg>
